src/ui/images/mark/articulation/upbow.svg

<?xml version="1.0" encoding="UTF-8" standalone="no"?>
<svg
   xmlns:dc="http://purl.org/dc/elements/1.1/"
   xmlns:cc="http://web.resource.org/cc/"
   xmlns:rdf="http://www.w3.org/1999/02/22-rdf-syntax-ns#"
   xmlns:svg="http://www.w3.org/2000/svg"
   xmlns="http://www.w3.org/2000/svg"
   xmlns:xlink="http://www.w3.org/1999/xlink"
   xmlns:sodipodi="http://sodipodi.sourceforge.net/DTD/sodipodi-0.dtd"
   xmlns:inkscape="http://www.inkscape.org/namespaces/inkscape"
   viewBox="0 -200 1000 1000"
   id="svg27169"
   sodipodi:version="0.32"
   inkscape:version="0.45.1"
   width="128"
   height="128"
   sodipodi:docname="upbow.svg"
   sodipodi:docbase="/home/matevz/canorus/trunk/src/ui/images/mark/articulation"
   inkscape:export-filename="/home/matevz/apps/canorus/branches/matevz/src/fonts/n2.png"
   inkscape:export-xdpi="120.95"
   inkscape:export-ydpi="120.95"
   inkscape:output_extension="org.inkscape.output.svg.inkscape"
   version="1.0">
  <metadata
     id="metadata27178">
    <rdf:RDF>
      <cc:Work
         rdf:about="">
        <dc:format>image/svg+xml</dc:format>
        <dc:type
           rdf:resource="http://purl.org/dc/dcmitype/StillImage" />
      </cc:Work>
    </rdf:RDF>
  </metadata>
  <defs
     id="defs27176">
    <linearGradient
       id="linearGradient33317">
      <stop
         style="stop-color:#000000;stop-opacity:1;"
         offset="0"
         id="stop33319" />
      <stop
         style="stop-color:#646464;stop-opacity:1;"
         offset="1"
         id="stop33321" />
    </linearGradient>
    <linearGradient
       inkscape:collect="always"
       xlink:href="#linearGradient33317"
       id="linearGradient33323"
       x1="49.270287"
       y1="920.35596"
       x2="110.55885"
       y2="920.35596"
       gradientUnits="userSpaceOnUse" />
    <linearGradient
       inkscape:collect="always"
       xlink:href="#linearGradient33317"
       id="linearGradient8122"
       gradientUnits="userSpaceOnUse"
       x1="49.270287"
       y1="920.35596"
       x2="110.55885"
       y2="920.35596" />
    <linearGradient
       inkscape:collect="always"
       xlink:href="#linearGradient33317"
       id="linearGradient19732"
       gradientUnits="userSpaceOnUse"
       x1="49.270287"
       y1="920.35596"
       x2="110.55885"
       y2="920.35596"
       gradientTransform="matrix(5.6766826,0,0,5.6766826,-206.90519,-4941.8885)" />
    <linearGradient
       inkscape:collect="always"
       xlink:href="#linearGradient33317"
       id="linearGradient20714"
       x1="483.75861"
       y1="336.54208"
       x2="900.97968"
       y2="336.54208"
       gradientUnits="userSpaceOnUse"
       gradientTransform="matrix(0.7657372,0,0,0.7657372,175.82664,67.12053)" />
    <linearGradient
       inkscape:collect="always"
       xlink:href="#linearGradient33317"
       id="linearGradient21697"
       gradientUnits="userSpaceOnUse"
       gradientTransform="matrix(0.7657372,0,0,0.7657372,175.82664,67.12053)"
       x1="483.75861"
       y1="336.54208"
       x2="900.97968"
       y2="336.54208" />
    <linearGradient
       inkscape:collect="always"
       xlink:href="#linearGradient33317"
       id="linearGradient21703"
       gradientUnits="userSpaceOnUse"
       gradientTransform="matrix(5.6766826,0,0,5.6766826,-206.90519,-4941.8885)"
       x1="49.270287"
       y1="920.35596"
       x2="110.55885"
       y2="920.35596" />
    <linearGradient
       inkscape:collect="always"
       xlink:href="#linearGradient33317"
       id="linearGradient21707"
       gradientUnits="userSpaceOnUse"
       gradientTransform="matrix(0.5805313,0,0,0.5805313,-202.92606,52.853836)"
       x1="483.75861"
       y1="336.54208"
       x2="900.97968"
       y2="336.54208" />
    <linearGradient
       inkscape:collect="always"
       xlink:href="#linearGradient33317"
       id="linearGradient23661"
       gradientUnits="userSpaceOnUse"
       gradientTransform="matrix(0.5805313,0,0,0.5805313,-202.92606,52.853836)"
       x1="483.75861"
       y1="336.54208"
       x2="900.97968"
       y2="336.54208" />
    <linearGradient
       inkscape:collect="always"
       xlink:href="#linearGradient33317"
       id="linearGradient2238"
       gradientUnits="userSpaceOnUse"
       gradientTransform="matrix(0.5805313,0,0,0.5805313,-216.73483,128.73884)"
       x1="483.75861"
       y1="336.54208"
       x2="2008.1578"
       y2="336.54208" />
    <linearGradient
       inkscape:collect="always"
       xlink:href="#linearGradient33317"
       id="linearGradient2248"
       gradientUnits="userSpaceOnUse"
       gradientTransform="matrix(0.5805313,0,0,0.5805313,-216.73483,128.73884)"
       x1="483.75861"
       y1="336.54208"
       x2="2008.1578"
       y2="336.54208" />
    <linearGradient
       inkscape:collect="always"
       xlink:href="#linearGradient33317"
       id="linearGradient3229"
       x1="-8.1343279"
       y1="250"
       x2="799"
       y2="250"
       gradientUnits="userSpaceOnUse" />
    <linearGradient
       inkscape:collect="always"
       xlink:href="#linearGradient33317"
       id="linearGradient4216"
       gradientUnits="userSpaceOnUse"
       x1="-8.1343279"
       y1="250"
       x2="799"
       y2="250" />
    <linearGradient
       inkscape:collect="always"
       xlink:href="#linearGradient33317"
       id="linearGradient5390"
       x1="-273"
       y1="0.31521606"
       x2="273"
       y2="0.31521606"
       gradientUnits="userSpaceOnUse" />
    <linearGradient
       inkscape:collect="always"
       xlink:href="#linearGradient33317"
       id="linearGradient6377"
       gradientUnits="userSpaceOnUse"
       x1="-273"
       y1="0.31521606"
       x2="273"
       y2="0.31521606" />
    <linearGradient
       inkscape:collect="always"
       xlink:href="#linearGradient33317"
       id="linearGradient7410"
       x1="37.855946"
       y1="19.808781"
       x2="742.65802"
       y2="19.808781"
       gradientUnits="userSpaceOnUse" />
    <linearGradient
       inkscape:collect="always"
       xlink:href="#linearGradient33317"
       id="linearGradient8393"
       gradientUnits="userSpaceOnUse"
       x1="37.855946"
       y1="19.808781"
       x2="742.65802"
       y2="19.808781" />
    <linearGradient
       inkscape:collect="always"
       xlink:href="#linearGradient33317"
       id="linearGradient2212"
       gradientUnits="userSpaceOnUse"
       x1="37.855946"
       y1="19.808781"
       x2="742.65802"
       y2="19.808781" />
    <linearGradient
       inkscape:collect="always"
       xlink:href="#linearGradient33317"
       id="linearGradient3231"
       x1="-225.0625"
       y1="0"
       x2="225"
       y2="0"
       gradientUnits="userSpaceOnUse" />
    <linearGradient
       inkscape:collect="always"
       xlink:href="#linearGradient33317"
       id="linearGradient4210"
       gradientUnits="userSpaceOnUse"
       x1="-225.0625"
       y1="0"
       x2="225"
       y2="0" />
    <linearGradient
       inkscape:collect="always"
       xlink:href="#linearGradient33317"
       id="linearGradient4218"
       gradientUnits="userSpaceOnUse"
       x1="-225.0625"
       y1="0"
       x2="225"
       y2="0" />
    <linearGradient
       inkscape:collect="always"
       xlink:href="#linearGradient33317"
       id="linearGradient3692"
       x1="-133"
       y1="0.071426392"
       x2="133"
       y2="0.071426392"
       gradientUnits="userSpaceOnUse" />
    <linearGradient
       inkscape:collect="always"
       xlink:href="#linearGradient33317"
       id="linearGradient4677"
       gradientUnits="userSpaceOnUse"
       x1="-133"
       y1="0.071426392"
       x2="133"
       y2="0.071426392" />
    <linearGradient
       inkscape:collect="always"
       xlink:href="#linearGradient33317"
       id="linearGradient4679"
       gradientUnits="userSpaceOnUse"
       x1="-133"
       y1="0.071426392"
       x2="133"
       y2="0.071426392" />
    <linearGradient
       inkscape:collect="always"
       xlink:href="#linearGradient33317"
       id="linearGradient5084"
       x1="-272.60001"
       y1="-0.20692661"
       x2="272.60001"
       y2="-0.20692661"
       gradientUnits="userSpaceOnUse" />
    <linearGradient
       inkscape:collect="always"
       xlink:href="#linearGradient33317"
       id="linearGradient5086"
       gradientUnits="userSpaceOnUse"
       x1="-272.60001"
       y1="-0.20692661"
       x2="272.60001"
       y2="-0.20692661" />
    <linearGradient
       inkscape:collect="always"
       xlink:href="#linearGradient33317"
       id="linearGradient5102"
       gradientUnits="userSpaceOnUse"
       x1="-272.60001"
       y1="-0.20692661"
       x2="272.60001"
       y2="-0.20692661" />
    <linearGradient
       inkscape:collect="always"
       xlink:href="#linearGradient33317"
       id="linearGradient5104"
       gradientUnits="userSpaceOnUse"
       x1="-272.60001"
       y1="-0.20692661"
       x2="272.60001"
       y2="-0.20692661" />
    <linearGradient
       inkscape:collect="always"
       xlink:href="#linearGradient33317"
       id="linearGradient5420"
       gradientUnits="userSpaceOnUse"
       x1="-272.60001"
       y1="-0.20692661"
       x2="272.60001"
       y2="-0.20692661" />
    <linearGradient
       inkscape:collect="always"
       xlink:href="#linearGradient33317"
       id="linearGradient6707"
       x1="-253"
       y1="0"
       x2="253"
       y2="0"
       gradientUnits="userSpaceOnUse" />
    <linearGradient
       inkscape:collect="always"
       xlink:href="#linearGradient33317"
       id="linearGradient6709"
       gradientUnits="userSpaceOnUse"
       x1="-253"
       y1="0"
       x2="253"
       y2="0" />
    <linearGradient
       inkscape:collect="always"
       xlink:href="#linearGradient33317"
       id="linearGradient7694"
       gradientUnits="userSpaceOnUse"
       x1="-253"
       y1="0"
       x2="253"
       y2="0" />
    <linearGradient
       inkscape:collect="always"
       xlink:href="#linearGradient33317"
       id="linearGradient8810"
       x1="-357"
       y1="181.61111"
       x2="357"
       y2="181.61111"
       gradientUnits="userSpaceOnUse" />
    <linearGradient
       inkscape:collect="always"
       xlink:href="#linearGradient33317"
       id="linearGradient9795"
       gradientUnits="userSpaceOnUse"
       x1="-357"
       y1="181.61111"
       x2="357"
       y2="181.61111" />
    <linearGradient
       inkscape:collect="always"
       xlink:href="#linearGradient33317"
       id="linearGradient3243"
       x1="-150"
       y1="99.449997"
       x2="150"
       y2="99.449997"
       gradientUnits="userSpaceOnUse" />
    <linearGradient
       inkscape:collect="always"
       xlink:href="#linearGradient33317"
       id="linearGradient4228"
       gradientUnits="userSpaceOnUse"
       x1="-150"
       y1="99.449997"
       x2="150"
       y2="99.449997" />
    <linearGradient
       inkscape:collect="always"
       xlink:href="#linearGradient33317"
       id="linearGradient4230"
       gradientUnits="userSpaceOnUse"
       x1="-150"
       y1="99.449997"
       x2="150"
       y2="99.449997" />
    <linearGradient
       inkscape:collect="always"
       xlink:href="#linearGradient33317"
       id="linearGradient4320"
       x1="-163"
       y1="260"
       x2="163"
       y2="260"
       gradientUnits="userSpaceOnUse" />
    <linearGradient
       inkscape:collect="always"
       xlink:href="#linearGradient33317"
       id="linearGradient4336"
       gradientUnits="userSpaceOnUse"
       x1="-163"
       y1="260"
       x2="163"
       y2="260" />
    <linearGradient
       inkscape:collect="always"
       xlink:href="#linearGradient33317"
       id="linearGradient4338"
       gradientUnits="userSpaceOnUse"
       x1="-163"
       y1="260"
       x2="163"
       y2="260" />
  </defs>
  <sodipodi:namedview
     inkscape:window-height="641"
     inkscape:window-width="927"
     inkscape:pageshadow="2"
     inkscape:pageopacity="0.0"
     borderopacity="1.0"
     bordercolor="#666666"
     pagecolor="#ffffff"
     id="base"
     inkscape:zoom="2.8284272"
     inkscape:cx="64.052592"
     inkscape:cy="61.465692"
     inkscape:window-x="415"
     inkscape:window-y="123"
     inkscape:current-layer="svg27169"
     width="128px"
     height="128px" />
  <g
     id="g4330"
     transform="matrix(1.0131032,0,0,1.0131032,1014.5047,-224.47538)">
    <g
       style="fill:#000000;fill-opacity:0.39215686"
       id="g4322"
       transform="matrix(1.5768336,0,0,-1.5768336,-497.18443,939.28746)">
      <path
         style="fill:#000000;fill-opacity:0.39215686"
         id="path4324"
         d="M -149,518 C -146.33333,519.33333 -143.33333,520 -140,520 C -134,520 -128.66667,517.66667 -124,513 C -122,511 -121,509 -121,507 C -119,502.33333 -104.16667,453.16667 -76.5,359.5 C -48.833333,265.83333 -34,214.33333 -32,205 C -28.666667,193.66667 -22.666667,167 -14,125 L 0,65 L 14,125 C 22.666667,167 28.666667,193.66667 32,205 C 34,214.33333 48.833333,265.83333 76.5,359.5 C 104.16667,453.16667 119,502.33333 121,507 C 121,509 122,511 124,513 C 128.66667,517.66667 134.33333,520 141,520 C 147,520 152.33333,517.66667 157,513 C 161,509 163,504 163,498 L 93,260 C 45.666667,103.33333 22,23 22,19 C 20,6.3333333 12.666667,0 0,0 C -12.666667,0 -20,6.3333333 -22,19 C -22,23 -45.666667,103.33333 -93,260 L -163,498 C -163,504 -161,509 -157,513 C -155.66667,513.66667 -153,515.33333 -149,518 z " />
    </g>
    <g
       style="fill:url(#linearGradient4336);fill-opacity:1"
       id="g4303"
       transform="matrix(1.5768338,0,0,-1.5768338,-518.51604,916.05004)">
      <path
         style="fill:url(#linearGradient4338);fill-opacity:1"
         id="path4305"
         d="M -149,518 C -146.33333,519.33333 -143.33333,520 -140,520 C -134,520 -128.66667,517.66667 -124,513 C -122,511 -121,509 -121,507 C -119,502.33333 -104.16667,453.16667 -76.5,359.5 C -48.833333,265.83333 -34,214.33333 -32,205 C -28.666667,193.66667 -22.666667,167 -14,125 L 0,65 L 14,125 C 22.666667,167 28.666667,193.66667 32,205 C 34,214.33333 48.833333,265.83333 76.5,359.5 C 104.16667,453.16667 119,502.33333 121,507 C 121,509 122,511 124,513 C 128.66667,517.66667 134.33333,520 141,520 C 147,520 152.33333,517.66667 157,513 C 161,509 163,504 163,498 L 93,260 C 45.666667,103.33333 22,23 22,19 C 20,6.3333333 12.666667,0 0,0 C -12.666667,0 -20,6.3333333 -22,19 C -22,23 -45.666667,103.33333 -93,260 L -163,498 C -163,504 -161,509 -157,513 C -155.66667,513.66667 -153,515.33333 -149,518 z " />
    </g>
  </g>
</svg>

<?xml version="1.0" standalone="no"?>
<!DOCTYPE svg PUBLIC "-//W3C//DTD SVG 1.1//EN" "http://www.w3.org/Graphics/SVG/1.1/DTD/svg11.dtd" >
<svg viewBox="-163 -200 1000 1000">
  <g transform="matrix(1 0 0 -1 0 800)">
   <path fill="currentColor"
d="M-149 518q4 2 9 2q9 0 16 -7q3 -3 3 -6q3 -7 44.5 -147.5t44.5 -154.5q5 -17 18 -80l14 -60l14 60q13 63 18 80q3 14 44.5 154.5t44.5 147.5q0 3 3 6q7 7 17 7q9 0 16 -7q6 -6 6 -15l-70 -238q-71 -235 -71 -241q-3 -19 -22 -19t-22 19q0 6 -71 241l-70 238q0 9 6 15
q2 1 8 5z" />
  </g>

</svg>
